unum/images-source/face_1.svg

<?xml version="1.0" encoding="UTF-8"?>
<svg width="87px" height="90px" viewBox="0 0 87 90" version="1.1" xmlns="http://www.w3.org/2000/svg" xmlns:xlink="http://www.w3.org/1999/xlink">
    <defs>
        <path d="M41.3301952,0 L44.1227084,0 C56.1200622,0.720809556 65.6598113,10.6671625 65.6598113,22.7905862 L65.6598113,30.4013448 C65.6598113,42.9915172 55.3713663,53.2337586 42.7264992,53.2337586 C30.0807108,53.2337586 19.7932217,42.9915172 19.7932217,30.4013448 L19.7932217,22.7905862 C19.7932217,10.6671625 29.3320845,0.720809556 41.3301952,0 L41.3301952,0 Z M0,78.8127804 L0,78.5446777 C11.5352742,67.1285459 26.8370378,60.8445483 43.1096896,60.8445483 C59.4458477,60.8445483 74.8035161,67.1776793 86.354229,78.6785448 L75.5421538,89.4411586 C66.8800508,80.8162207 55.3618081,76.0661379 43.1096896,76.0661379 C30.8575779,76.0661379 19.3393352,80.8162207 10.6762833,89.4402072 L1.13012956e-15,78.8127804 L0,78.8127804 Z M35.0820849,22.7905862 C35.0820849,18.5941724 38.511578,15.1797586 42.7264992,15.1797586 C46.9414549,15.1797586 50.3709481,18.5941724 50.3709481,22.7905862 L50.3709481,30.4013448 C50.3709481,34.5977586 46.9414549,38.0121724 42.7264992,38.0121724 C38.511578,38.0121724 35.0820849,34.5977586 35.0820849,30.4013448 L35.0820849,22.7905862 Z" id="path-1"></path>
    </defs>
    <g id="Pages" stroke="none" stroke-width="1" fill="none" fill-rule="evenodd">
        <g id="Web" transform="translate(-385.000000, -8597.000000)">
            <g id="Iconography" transform="translate(376.000000, 6650.000000)">
                <g id="Page-1" transform="translate(2.000000, 1947.000000)">
                    <g id="Group-12" transform="translate(7.000000, 0.000000)">
                        <mask id="mask-2" fill="white">
                            <use xlink:href="#path-1"></use>
                        </mask>
                        <g id="Clip-11"></g>
                        <polygon id="Fill-10" fill="#8394A1" mask="url(#mask-2)" points="-3.75799476 93.0562866 89.9774015 93.0562866 89.9774015 -3.65695483 -3.75799476 -3.65695483"></polygon>
                    </g>
                </g>
            </g>
        </g>
    </g>
</svg>

<svg width="87" height="90" viewBox="0 0 87 90" xmlns="http://www.w3.org/2000/svg" xmlns:xlink="http://www.w3.org/1999/xlink"><defs><path d="M41.33 0h2.793C56.12.72 65.66 10.667 65.66 22.79v7.611c0 12.59-10.289 22.833-22.934 22.833-12.645 0-22.933-10.242-22.933-22.833v-7.61C19.793 10.667 29.333.72 41.33 0zM0 78.813v-.268c11.535-11.416 26.837-17.7 43.11-17.7 16.336 0 31.694 6.333 43.244 17.834L75.542 89.44c-8.662-8.625-20.18-13.375-32.432-13.375-12.252 0-23.77 4.75-32.434 13.374L0 78.813zM35.082 22.79c0-4.197 3.43-7.611 7.644-7.611 4.215 0 7.645 3.414 7.645 7.61V30.4c0 4.197-3.43 7.611-7.645 7.611-4.214 0-7.644-3.414-7.644-7.61V22.79z" id="a"/></defs><g fill="none" fill-rule="evenodd"><mask id="b" fill="#fff"><use xlink:href="#a"/></mask><path fill="#8394A1" mask="url(#b)" d="M-3.758 93.056h93.735V-3.657H-3.758z"/></g></svg>
